src/scalable/apps/librecad.svg

<svg width="64" height="64" viewBox="0 0 64 64" fill="none" xmlns="http://www.w3.org/2000/svg">
<circle cx="32" cy="32" r="27" fill="white"/>
<path d="M17.2727 17.2727V9.36647C14.1195 11.4224 11.4224 14.1195 9.36647 17.2727H17.2727Z" fill="#8ED900"/>
<path d="M46.7273 9.36647V17.2727H54.6335C52.5776 14.1195 49.8805 11.4224 46.7273 9.36647Z" fill="#8ED900"/>
<path d="M54.6335 46.7273H46.7273V54.6335C49.8805 52.5776 52.5776 49.8805 54.6335 46.7273Z" fill="#8ED900"/>
<path d="M17.2727 54.6335V46.7273H9.36649C11.4224 49.8805 14.1195 52.5776 17.2727 54.6335Z" fill="#8ED900"/>
<rect x="22.1818" y="29.5455" width="27.8182" height="4.90909" fill="#4D4D4D"/>
<circle cx="32" cy="32.0001" r="16.1364" stroke="#8ED900" stroke-width="7"/>
<rect x="12.3636" y="27.0909" width="9.81818" height="9.81818" fill="#4D4D4D"/>
</svg>

<svg xmlns="http://www.w3.org/2000/svg" width="64" height="64" fill="none"><circle cx="32" cy="32" r="27" fill="#fff"/><path fill="#8ED900" d="M17.273 17.273V9.366a27.146 27.146 0 0 0-7.907 7.907h7.907ZM46.727 9.366v7.907h7.907a27.145 27.145 0 0 0-7.907-7.907ZM54.633 46.727h-7.906v7.907a27.145 27.145 0 0 0 7.907-7.907ZM17.273 54.633v-7.906H9.366a27.145 27.145 0 0 0 7.907 7.907Z"/><path fill="#4D4D4D" d="M22.182 29.546H50v4.909H22.182z"/><circle cx="32" cy="32" r="16.136" stroke="#8ED900" stroke-width="7"/><path fill="#4D4D4D" d="M12.364 27.091h9.818v9.818h-9.818z"/></svg>
